img/main-top-before.svg

<svg width="105" height="225" viewBox="0 0 105 225" fill="none" xmlns="http://www.w3.org/2000/svg">
<path d="M3.6972 58.9463C4.86448 59.8434 5.06494 61.3945 4.16492 62.5657C3.2649 63.7368 1.71442 63.9424 0.547139 63.0454C-0.620145 62.1484 -0.820589 60.5972 0.0794277 59.426C0.979444 58.2549 2.62719 58.124 3.6972 58.9463Z" fill="#FFCF2D"/>
<path d="M17.1225 41.4766C18.2898 42.3736 18.4902 43.9248 17.5902 45.096C16.6902 46.2671 15.1397 46.4727 13.9724 45.5757C12.8051 44.6786 12.6047 43.1275 13.5047 41.9563C14.4047 40.7852 16.0525 40.6543 17.1225 41.4766Z" fill="#FFCF2D"/>
<path d="M30.5478 24.0069C31.715 24.9039 31.9155 26.4551 31.0155 27.6262C30.1155 28.7974 28.565 29.003 27.3977 28.1059C26.2304 27.2089 26.03 25.6578 26.93 24.4866C27.755 23.413 29.4778 23.1846 30.5478 24.0069Z" fill="#FFCF2D"/>
<path d="M4.84075 87.4561C6.00804 88.3531 6.20849 89.9043 5.30847 91.0754C4.40845 92.2466 2.85798 92.4522 1.6907 91.5552C0.523414 90.6581 0.322961 89.107 1.22298 87.9358C2.12299 86.7647 3.67347 86.5591 4.84075 87.4561Z" fill="#FFCF2D"/>
<path d="M18.1908 70.084C19.3581 70.9811 19.5586 72.5322 18.6586 73.7034C17.7586 74.8745 16.2081 75.0801 15.0408 74.1831C13.8735 73.2861 13.6731 71.7349 14.5731 70.5637C15.4731 69.3926 17.0236 69.187 18.1908 70.084Z" fill="#FFCF2D"/>
<path d="M31.6161 52.6143C32.7834 53.5113 32.9839 55.0625 32.0839 56.2337C31.1838 57.4048 29.6334 57.6104 28.4661 56.7134C27.2988 55.8163 27.0984 54.2652 27.9984 53.094C28.8984 51.9229 30.4489 51.7173 31.6161 52.6143Z" fill="#FFCF2D"/>
<path d="M45.0414 35.1446C46.2087 36.0416 46.4092 37.5928 45.5092 38.7639C44.6091 39.9351 43.0587 40.1407 41.8914 39.2436C40.7241 38.3466 40.5236 36.7955 41.4237 35.6243C42.2487 34.5507 43.8741 34.2475 45.0414 35.1446Z" fill="#FFCF2D"/>
<path d="M1.65763 1.80475C2.82491 2.70179 3.02537 4.25292 2.12536 5.42408C1.22535 6.59524 -0.325128 6.80083 -1.49241 5.9038C-2.65969 5.00676 -2.86014 3.45561 -1.96013 2.28445C-1.13512 1.21089 0.490348 0.907716 1.65763 1.80475Z" fill="#FFCF2D"/>
<path d="M2.72601 30.4131C3.89329 31.3102 4.09374 32.8613 3.19372 34.0325C2.2937 35.2036 0.743231 35.4092 -0.424052 34.5122C-1.59133 33.6152 -1.79179 32.064 -0.891769 30.8929C0.00824702 29.7217 1.55873 29.5161 2.72601 30.4131Z" fill="#FFCF2D"/>
<path d="M16.1513 12.9434C17.3186 13.8404 17.519 15.3916 16.619 16.5627C15.719 17.7339 14.1685 17.9395 13.0012 17.0425C11.834 16.1454 11.6335 14.5943 12.5335 13.4231C13.3585 12.3496 14.984 12.0464 16.1513 12.9434Z" fill="#FFCF2D"/>
<path d="M5.81243 115.99C6.97971 116.887 7.18016 118.438 6.28015 119.61C5.38013 120.781 3.82966 120.986 2.66237 120.089C1.49509 119.192 1.29464 117.641 2.19466 116.47C3.01967 115.396 4.74242 115.168 5.81243 115.99Z" fill="#FFCF2D"/>
<path d="M19.2377 98.5196C20.405 99.4166 20.6055 100.968 19.7054 102.139C18.8054 103.31 17.2549 103.516 16.0877 102.619C14.9204 101.722 14.7199 100.17 15.6199 98.9993C16.52 97.8281 18.1677 97.6973 19.2377 98.5196Z" fill="#FFCF2D"/>
<path d="M32.5878 81.1475C33.7551 82.0445 33.9556 83.5957 33.0555 84.7668C32.1555 85.938 30.605 86.1436 29.4378 85.2466C28.2705 84.3495 28.07 82.7984 28.9701 81.6272C29.8701 80.4561 31.5178 80.3252 32.5878 81.1475Z" fill="#FFCF2D"/>
<path d="M46.0131 63.6778C47.1804 64.5748 47.3808 66.126 46.4808 67.2971C45.5808 68.4683 44.0303 68.6739 42.8631 67.7768C41.6958 66.8798 41.4953 65.3287 42.3953 64.1575C43.2954 62.9863 44.9431 62.8555 46.0131 63.6778Z" fill="#FFCF2D"/>
<path d="M59.4384 46.2081C60.6057 47.1051 60.8061 48.6562 59.9061 49.8274C59.0061 50.9985 57.4556 51.2041 56.2883 50.3071C55.1211 49.4101 54.9206 47.8589 55.8206 46.6878C56.6457 45.6142 58.3684 45.3858 59.4384 46.2081Z" fill="#FFCF2D"/>
<path d="M7.3485 148.217C8.21836 147.085 8.00896 145.465 6.88079 144.598C5.75261 143.731 4.13288 143.945 3.26302 145.077C2.39315 146.209 2.60255 147.83 3.73073 148.697C4.85891 149.564 6.47864 149.349 7.3485 148.217Z" fill="#FFCF2D"/>
<path d="M20.3061 127.128C21.4734 128.025 21.6738 129.576 20.7738 130.747C19.8738 131.918 18.3233 132.124 17.156 131.227C15.9887 130.33 15.7883 128.779 16.6883 127.608C17.5133 126.534 19.1388 126.231 20.3061 127.128Z" fill="#FFCF2D"/>
<path d="M33.7314 109.658C34.8987 110.555 35.0991 112.106 34.1991 113.278C33.2991 114.449 31.7486 114.654 30.5813 113.757C29.414 112.86 29.2136 111.309 30.1136 110.138C31.0136 108.967 32.5641 108.761 33.7314 109.658Z" fill="#FFCF2D"/>
<path d="M47.0815 92.2862C48.2488 93.1832 48.4492 94.7343 47.5492 95.9055C46.6492 97.0767 45.0987 97.2823 43.9314 96.3852C42.7641 95.4882 42.5637 93.9371 43.4637 92.7659C44.3637 91.5947 45.9142 91.3891 47.0815 92.2862Z" fill="#FFCF2D"/>
<path d="M60.9745 78.4358C61.8443 77.3039 61.6349 75.6834 60.5068 74.8164C59.3786 73.9495 57.7589 74.1642 56.889 75.2962C56.0191 76.4281 56.2285 78.0485 57.3567 78.9155C58.4849 79.7825 60.1046 79.5677 60.9745 78.4358Z" fill="#FFCF2D"/>
<path d="M73.9321 57.3467C75.0993 58.2438 75.2998 59.7949 74.3998 60.9661C73.4998 62.1372 71.9493 62.3428 70.782 61.4458C69.6147 60.5488 69.4143 58.9976 70.3143 57.8264C71.1393 56.7529 72.7648 56.4497 73.9321 57.3467Z" fill="#FFCF2D"/>
<path d="M7.94915 173.206C9.11644 174.103 9.31688 175.654 8.41687 176.825C7.51685 177.997 5.96638 178.202 4.7991 177.305C3.63182 176.408 3.43136 174.857 4.33137 173.686C5.23139 172.515 6.78187 172.309 7.94915 173.206Z" fill="#FFCF2D"/>
<path d="M21.3745 155.736C22.5417 156.633 22.7422 158.185 21.8422 159.356C20.9422 160.527 19.3917 160.732 18.2244 159.835C17.0571 158.938 16.8567 157.387 17.7567 156.216C18.6567 155.045 20.2072 154.839 21.3745 155.736Z" fill="#FFCF2D"/>
<path d="M34.7997 138.267C35.967 139.164 36.1675 140.715 35.2675 141.886C34.3674 143.057 32.817 143.263 31.6497 142.366C30.4824 141.469 30.2819 139.918 31.182 138.746C32.007 137.673 33.6325 137.37 34.7997 138.267Z" fill="#FFCF2D"/>
<path d="M48.225 120.796C49.3923 121.693 49.5928 123.244 48.6928 124.415C47.7927 125.586 46.2423 125.792 45.075 124.895C43.9077 123.998 43.7072 122.447 44.6073 121.276C45.5073 120.105 47.0577 119.899 48.225 120.796Z" fill="#FFCF2D"/>
<path d="M61.5751 103.424C62.7424 104.321 62.9429 105.872 62.0428 107.043C61.1428 108.214 59.5924 108.42 58.4251 107.523C57.2578 106.626 57.0573 105.075 57.9574 103.904C58.8574 102.732 60.4078 102.527 61.5751 103.424Z" fill="#FFCF2D"/>
<path d="M75.0004 85.9541C76.1677 86.8512 76.3682 88.4023 75.4681 89.5735C74.5681 90.7447 73.0177 90.9503 71.8504 90.0532C70.6831 89.1562 70.4826 87.605 71.3826 86.4339C72.2827 85.2627 73.8331 85.0571 75.0004 85.9541Z" fill="#FFCF2D"/>
<path d="M88.4257 68.4844C89.593 69.3815 89.7935 70.9326 88.8934 72.1038C87.9934 73.2749 86.4429 73.4805 85.2757 72.5835C84.1084 71.6865 83.9079 70.1353 84.8079 68.9641C85.633 67.8906 87.2584 67.5874 88.4257 68.4844Z" fill="#FFCF2D"/>
<path d="M8.99554 201.642C10.1628 202.539 10.3633 204.09 9.46326 205.261C8.56324 206.432 7.01277 206.638 5.84548 205.741C4.6782 204.844 4.47775 203.293 5.37776 202.121C6.20278 201.048 7.92553 200.819 8.99554 201.642Z" fill="#FFCF2D"/>
<path d="M22.3456 184.27C23.5129 185.167 23.7134 186.718 22.8133 187.889C21.9133 189.06 20.3629 189.266 19.1956 188.369C18.0283 187.472 17.8278 185.92 18.7279 184.749C19.6279 183.578 21.2756 183.447 22.3456 184.27Z" fill="#FFCF2D"/>
<path d="M35.7709 166.8C36.9382 167.697 37.1387 169.248 36.2386 170.419C35.3386 171.59 33.7881 171.796 32.6209 170.899C31.4536 170.002 31.2531 168.451 32.1532 167.28C33.0532 166.108 34.7009 165.978 35.7709 166.8Z" fill="#FFCF2D"/>
<path d="M49.1962 149.329C50.3635 150.226 50.5639 151.777 49.6639 152.948C48.7639 154.12 47.2134 154.325 46.0462 153.428C44.8789 152.531 44.6784 150.98 45.5784 149.809C46.4035 148.735 48.1262 148.507 49.1962 149.329Z" fill="#FFCF2D"/>
<path d="M62.6215 131.859C63.7888 132.756 63.9892 134.308 63.0892 135.479C62.1892 136.65 60.6387 136.856 59.4715 135.958C58.3042 135.061 58.1037 133.51 59.0037 132.339C59.9038 131.168 61.5515 131.037 62.6215 131.859Z" fill="#FFCF2D"/>
<path d="M75.9716 114.487C77.1389 115.384 77.3393 116.936 76.4393 118.107C75.5393 119.278 73.9888 119.483 72.8215 118.586C71.6543 117.689 71.4538 116.138 72.3538 114.967C73.2539 113.796 74.9016 113.665 75.9716 114.487Z" fill="#FFCF2D"/>
<path d="M89.3969 97.0176C90.5642 97.9147 90.7646 99.4658 89.8646 100.637C88.9646 101.808 87.4141 102.014 86.2469 101.117C85.0796 100.22 84.8791 98.6685 85.7791 97.4973C86.6791 96.3262 88.3269 96.1953 89.3969 97.0176Z" fill="#FFCF2D"/>
<path d="M102.822 79.5479C103.989 80.4449 104.19 81.9961 103.29 83.1672C102.39 84.3384 100.839 84.544 99.6721 83.647C98.5049 82.7499 98.3044 81.1988 99.2044 80.0276C100.029 78.954 101.752 78.7256 102.822 79.5479Z" fill="#FFCF2D"/>
</svg>

<svg width="105" height="225" fill="none" xmlns="http://www.w3.org/2000/svg"><path d="M3.697 58.946c1.167.897 1.368 2.449.468 3.62-.9 1.17-2.45 1.376-3.618.48-1.167-.898-1.368-2.449-.468-3.62.9-1.171 2.548-1.302 3.618-.48zm13.425-17.469c1.168.897 1.368 2.448.468 3.619-.9 1.171-2.45 1.377-3.618.48-1.167-.897-1.367-2.449-.467-3.62.9-1.17 2.547-1.302 3.617-.48zm13.426-17.47c1.167.897 1.368 2.448.468 3.62-.9 1.17-2.451 1.376-3.618.479-1.168-.897-1.368-2.448-.468-3.62.825-1.073 2.548-1.301 3.618-.48zM4.84 87.456c1.168.897 1.368 2.448.468 3.62-.9 1.17-2.45 1.376-3.617.48-1.168-.898-1.368-2.449-.468-3.62.9-1.171 2.45-1.377 3.618-.48zm13.35-17.372c1.168.897 1.369 2.448.469 3.62-.9 1.17-2.45 1.376-3.618.48-1.168-.898-1.368-2.45-.468-3.62.9-1.171 2.45-1.377 3.618-.48zm13.426-17.47c1.167.897 1.368 2.449.468 3.62-.9 1.17-2.45 1.376-3.618.48-1.167-.898-1.368-2.449-.468-3.62.9-1.171 2.45-1.377 3.618-.48zm13.425-17.469c1.168.897 1.368 2.448.468 3.619-.9 1.171-2.45 1.377-3.618.48-1.167-.897-1.367-2.449-.467-3.62.825-1.073 2.45-1.377 3.617-.48zM1.658 1.805c1.167.897 1.367 2.448.467 3.62-.9 1.17-2.45 1.376-3.617.479-1.168-.897-1.368-2.448-.468-3.62.825-1.073 2.45-1.376 3.618-.48zm1.068 28.608c1.167.897 1.368 2.448.468 3.62-.9 1.17-2.45 1.376-3.618.48-1.167-.898-1.368-2.449-.468-3.62.9-1.171 2.45-1.377 3.618-.48zm13.425-17.47c1.168.897 1.368 2.449.468 3.62-.9 1.17-2.45 1.377-3.618.48-1.167-.898-1.367-2.449-.467-3.62.824-1.073 2.45-1.377 3.617-.48zM5.812 115.99c1.168.897 1.368 2.448.468 3.62-.9 1.171-2.45 1.376-3.618.479-1.167-.897-1.367-2.448-.467-3.619.825-1.074 2.547-1.302 3.617-.48zm13.426-17.47c1.167.897 1.367 2.448.467 3.619-.9 1.171-2.45 1.377-3.617.48-1.168-.897-1.368-2.449-.468-3.62.9-1.17 2.548-1.302 3.618-.48zm13.35-17.373c1.167.897 1.368 2.449.468 3.62-.9 1.171-2.451 1.377-3.618.48-1.168-.897-1.368-2.449-.468-3.62.9-1.17 2.548-1.302 3.618-.48zm13.425-17.469c1.167.897 1.368 2.448.468 3.62-.9 1.17-2.45 1.376-3.618.479-1.167-.897-1.368-2.448-.468-3.62.9-1.17 2.548-1.301 3.618-.48zm13.425-17.47c1.168.897 1.368 2.448.468 3.62-.9 1.17-2.45 1.376-3.618.48-1.167-.898-1.367-2.45-.467-3.62.825-1.074 2.547-1.302 3.617-.48zM7.348 148.217a2.58 2.58 0 00-.467-3.619 2.58 2.58 0 00-3.618.479 2.581 2.581 0 00.468 3.62 2.58 2.58 0 003.617-.48zm12.958-21.089c1.167.897 1.368 2.448.468 3.619-.9 1.171-2.45 1.377-3.618.48-1.167-.897-1.368-2.448-.468-3.619.825-1.074 2.45-1.377 3.618-.48zm13.425-17.47c1.168.897 1.368 2.448.468 3.62-.9 1.171-2.45 1.376-3.618.479-1.167-.897-1.367-2.448-.467-3.619.9-1.171 2.45-1.377 3.617-.48zm13.35-17.372c1.168.897 1.368 2.448.468 3.62-.9 1.17-2.45 1.376-3.618.48-1.167-.898-1.367-2.449-.467-3.62.9-1.171 2.45-1.377 3.617-.48zm13.893-13.85a2.58 2.58 0 00-.467-3.62 2.58 2.58 0 00-3.618.48 2.58 2.58 0 00.468 3.62 2.58 2.58 0 003.617-.48zm12.958-21.089c1.167.897 1.368 2.448.468 3.62-.9 1.17-2.45 1.376-3.618.479-1.167-.897-1.368-2.448-.468-3.62.825-1.073 2.45-1.376 3.618-.48zM7.95 173.206c1.166.897 1.367 2.448.467 3.619-.9 1.172-2.45 1.377-3.618.48-1.167-.897-1.368-2.448-.468-3.619.9-1.171 2.45-1.377 3.618-.48zm13.425-17.47c1.167.897 1.367 2.449.467 3.62-.9 1.171-2.45 1.376-3.618.479-1.167-.897-1.367-2.448-.467-3.619.9-1.171 2.45-1.377 3.617-.48zM34.8 138.267c1.167.897 1.367 2.448.468 3.619-.9 1.171-2.451 1.377-3.618.48-1.168-.897-1.368-2.448-.468-3.62.825-1.073 2.45-1.376 3.618-.479zm13.425-17.471c1.167.897 1.368 2.448.468 3.619-.9 1.171-2.45 1.377-3.618.48-1.167-.897-1.368-2.448-.468-3.619.9-1.171 2.45-1.377 3.618-.48zm13.35-17.372c1.167.897 1.368 2.448.468 3.619-.9 1.171-2.45 1.377-3.618.48-1.167-.897-1.368-2.448-.468-3.619.9-1.172 2.45-1.377 3.618-.48zM75 85.954c1.168.897 1.368 2.448.468 3.62-.9 1.17-2.45 1.376-3.618.48-1.167-.898-1.367-2.449-.467-3.62.9-1.171 2.45-1.377 3.617-.48zm13.426-17.47c1.167.898 1.367 2.449.467 3.62-.9 1.17-2.45 1.377-3.617.48-1.168-.898-1.368-2.449-.468-3.62.825-1.073 2.45-1.377 3.618-.48zM8.996 201.642c1.167.897 1.367 2.448.467 3.619-.9 1.171-2.45 1.377-3.618.48-1.167-.897-1.367-2.448-.467-3.62.825-1.073 2.548-1.302 3.618-.479zm13.35-17.372c1.167.897 1.367 2.448.467 3.619-.9 1.171-2.45 1.377-3.617.48-1.168-.897-1.368-2.449-.468-3.62.9-1.171 2.548-1.302 3.618-.479zM35.77 166.8c1.168.897 1.369 2.448.469 3.619-.9 1.171-2.45 1.377-3.618.48-1.167-.897-1.368-2.448-.468-3.619.9-1.172 2.548-1.302 3.618-.48zm13.426-17.471c1.168.897 1.368 2.448.468 3.619-.9 1.172-2.45 1.377-3.618.48-1.167-.897-1.368-2.448-.468-3.619.825-1.074 2.548-1.302 3.618-.48zm13.425-17.47c1.168.897 1.368 2.449.468 3.62-.9 1.171-2.45 1.377-3.617.479-1.168-.897-1.368-2.448-.468-3.619.9-1.171 2.547-1.302 3.617-.48zm13.351-17.372c1.167.897 1.367 2.449.467 3.62-.9 1.171-2.45 1.376-3.617.479-1.168-.897-1.368-2.448-.468-3.619.9-1.171 2.548-1.302 3.618-.48zm13.425-17.469c1.167.897 1.368 2.448.468 3.619-.9 1.171-2.45 1.377-3.618.48-1.167-.897-1.368-2.449-.468-3.62.9-1.17 2.548-1.302 3.618-.48zm13.425-17.47c1.167.897 1.368 2.448.468 3.62-.9 1.17-2.451 1.376-3.618.479-1.167-.897-1.368-2.448-.468-3.62.825-1.073 2.548-1.301 3.618-.48z" fill="#FFCF2D"/></svg>
